src/frontend/src/images/facebook.svg

<svg width="16" height="16" viewBox="0 0 16 16" fill="none" xmlns="http://www.w3.org/2000/svg">
<path d="M7.99997 0.626465C3.78101 0.626465 0.361084 4.0464 0.361084 8.26535C0.361084 12.0779 3.15463 15.2381 6.80678 15.8118V10.473H4.8665V8.26535H6.80678V6.58251C6.80678 4.6682 7.9465 3.61098 9.69199 3.61098C10.5277 3.61098 11.4016 3.75994 11.4016 3.75994V5.6391H10.4391C9.48956 5.6391 9.19393 6.22806 9.19393 6.8323V8.26535H11.3122L10.9738 10.473H9.19393V15.8118C12.8453 15.2389 15.6389 12.0772 15.6389 8.26535C15.6389 4.0464 12.2189 0.626465 7.99997 0.626465Z" fill="#3B3A39"/>
</svg>

<svg xmlns="http://www.w3.org/2000/svg" width="16" height="16" fill="none" viewBox="0 0 16 16"><path fill="#3b3a39" d="M8 .63A7.64 7.64 0 0 0 6.8 15.8v-5.34H4.88v-2.2H6.8V6.58c0-1.91 1.14-2.97 2.88-2.97.84 0 1.71.15 1.71.15v1.88h-.96c-.95 0-1.25.59-1.25 1.2v1.43h2.12l-.34 2.2H9.2v5.34A7.64 7.64 0 0 0 8 .63"/></svg>
